assets/img/icon-checkbox.svg

<svg xmlns="http://www.w3.org/2000/svg" xmlns:xlink="http://www.w3.org/1999/xlink" width="500" zoomAndPan="magnify" viewBox="0 0 375 374.999991" height="500" preserveAspectRatio="xMidYMid meet" version="1.0"><rect x="-37.5" width="450" fill="#ffffff" y="-37.499999" height="449.999989" fill-opacity="1"/><rect x="-37.5" width="450" fill="#ffffff" y="-37.499999" height="449.999989" fill-opacity="1"/><path fill="#121212" d="M 340.167969 72.289062 C 329.921875 62.042969 313.308594 62.042969 303.058594 72.289062 L 136.601562 238.746094 L 71.929688 174.074219 C 61.683594 163.828125 45.066406 163.828125 34.820312 174.074219 C 24.570312 184.320312 24.570312 200.9375 34.820312 211.183594 L 118.046875 294.410156 L 136.601562 312.96875 L 155.15625 294.410156 L 340.167969 109.398438 C 350.417969 99.152344 350.417969 82.539062 340.167969 72.289062 " fill-opacity="1" fill-rule="nonzero"/></svg>

<svg xmlns="http://www.w3.org/2000/svg" width="500" viewBox="0 0 375 375" height="500" version="1.0"><path fill="#fff" d="M-37.5-37.5h450v450h-450z"/><path fill="#fff" d="M-37.5-37.5h450v450h-450z"/><path fill="#121212" d="M340.168 72.29c-10.246-10.247-26.86-10.247-37.11 0L136.603 238.745 71.93 174.074c-10.246-10.246-26.864-10.246-37.11 0-10.25 10.246-10.25 26.863 0 37.11l83.227 83.226 18.555 18.559 18.554-18.559 185.012-185.012c10.25-10.246 10.25-26.859 0-37.109"/></svg>
